X:179
T:Bubbling Wine
C:Paddy O'Brien
R:reel
M:4/4
K:Edor
BEE2 d2^cd | BEE2 ADFA | GBEF GBef | gefd edBA |
B=cBA GBdB | A2^GB A=GFA | BEE2 GBec | dBAd BEE2 ::
Bee2 gebe | Add2 fdad | Bee^d efge | bafa gee2 |
g2fg edB^c | defe dBA=c | BEE2 GBe^c | dBA=c BEE2 :|
